packages/ffe-icons/icons/filled/md/severe_cold.svg

<svg xmlns="http://www.w3.org/2000/svg" height="24" viewBox="0 -960 960 960" width="24"><path d="M800-570.001q-12.769 0-21.384-8.615T770.001-600q0-12.384 8.615-21.192 8.615-8.807 21.384-8.807 12.384 0 21.192 8.807 8.807 8.808 8.807 21.192 0 12.769-8.807 21.384-8.808 8.615-21.192 8.615ZM410.001-248.233l-93.925 93.925q-8.307 8.307-20.576 8.307t-20.576-8.923q-8.923-8.307-8.923-20.576t8.923-21.192l135.077-135.077v-78.232h-78.232L196.076-274.308q-8.307 8.307-20.576 8.307t-20.576-8.923q-8.923-8.307-8.923-20.576t8.923-21.192l93.309-93.309H119q-12.384 0-20.692-8.615-8.307-8.615-8.307-21.384 0-12.384 8.615-21.192 8.615-8.807 21.384-8.807h128.233l-93.925-92.925q-8.307-8.307-8.307-20.576t8.923-21.192q8.307-8.307 20.576-8.307t21.192 8.307l135.077 134.693h78.232v-78.232L274.308-682.924q-8.307-8.307-8.307-20.576t8.923-21.192q8.307-8.307 20.576-8.307t21.192 8.307l93.309 92.925V-760q0-12.384 8.615-21.192 8.615-8.807 21.384-8.807 12.384 0 21.192 8.807 8.807 8.808 8.807 21.192v128.233l92.925-92.925q8.307-8.307 20.576-8.307t21.192 8.307q8.307 8.923 8.307 21.192t-8.307 20.576L469.999-548.231v78.232H760q12.384 0 21.192 8.807 8.807 8.808 8.807 21.192 0 12.769-8.807 21.384-8.808 8.615-21.192 8.615H631.767l92.925 93.925q8.307 8.307 8.307 20.576t-8.307 20.576q-8.923 8.923-21.192 8.923t-20.576-8.923L548.231-410.001h-78.232v78.232l134.693 135.693q8.307 8.307 8.307 20.576t-8.307 20.576q-8.923 8.923-21.192 8.923t-20.576-8.923l-92.925-93.309V-119q0 12.384-8.807 20.692-8.808 8.307-21.192 8.307-12.769 0-21.384-8.615T410.001-120v-128.233ZM800-685.385q-12.769 0-21.384-8.615t-8.615-21.384V-840q0-12.384 8.615-21.192 8.615-8.807 21.384-8.807 12.384 0 21.192 8.807 8.807 8.808 8.807 21.192v125.616q0 12.384-8.807 20.691-8.808 8.308-21.192 8.308Z"/></svg>

<svg xmlns="http://www.w3.org/2000/svg" height="24" viewBox="0 -960 960 960" width="24"><path d="M800-570q-12.77 0-21.38-8.62Q770-587.23 770-600q0-12.38 8.62-21.19Q787.23-630 800-630q12.38 0 21.19 8.81T830-600q0 12.77-8.81 21.38Q812.38-570 800-570ZM410-248.23l-93.92 93.92Q307.77-146 295.5-146q-12.27 0-20.58-8.92-8.92-8.31-8.92-20.58 0-12.27 8.92-21.19L410-331.77V-410h-78.23L196.08-274.31Q187.77-266 175.5-266q-12.27 0-20.58-8.92-8.92-8.31-8.92-20.58 0-12.27 8.92-21.19L248.23-410H119q-12.38 0-20.69-8.62Q90-427.23 90-440q0-12.38 8.62-21.19Q107.23-470 120-470h128.23l-93.92-92.92Q146-571.23 146-583.5q0-12.27 8.92-21.19 8.31-8.31 20.58-8.31 12.27 0 21.19 8.31L331.77-470H410v-78.23L274.31-682.92Q266-691.23 266-703.5q0-12.27 8.92-21.19 8.31-8.31 20.58-8.31 12.27 0 21.19 8.31L410-631.77V-760q0-12.38 8.62-21.19Q427.23-790 440-790q12.38 0 21.19 8.81T470-760v128.23l92.92-92.92q8.31-8.31 20.58-8.31 12.27 0 21.19 8.31 8.31 8.92 8.31 21.19 0 12.27-8.31 20.58L470-548.23V-470h290q12.38 0 21.19 8.81T790-440q0 12.77-8.81 21.38Q772.38-410 760-410H631.77l92.92 93.92q8.31 8.31 8.31 20.58 0 12.27-8.31 20.58-8.92 8.92-21.19 8.92-12.27 0-20.58-8.92L548.23-410H470v78.23l134.69 135.69q8.31 8.31 8.31 20.58 0 12.27-8.31 20.58-8.92 8.92-21.19 8.92-12.27 0-20.58-8.92L470-248.23V-119q0 12.38-8.81 20.69T440-90q-12.77 0-21.38-8.62Q410-107.23 410-120v-128.23Zm390-437.16q-12.77 0-21.38-8.61-8.62-8.62-8.62-21.38V-840q0-12.38 8.62-21.19Q787.23-870 800-870q12.38 0 21.19 8.81T830-840v125.62q0 12.38-8.81 20.69-8.81 8.3-21.19 8.3Z"/></svg>
